styles/1/Numix/22/places/yellow-folder-wine.svg

<?xml version="1.0" encoding="UTF-8" standalone="no"?>
<!-- Created with Inkscape (http://www.inkscape.org/) -->

<svg
   xmlns:dc="http://purl.org/dc/elements/1.1/"
   xmlns:cc="http://creativecommons.org/ns#"
   xmlns:rdf="http://www.w3.org/1999/02/22-rdf-syntax-ns#"
   xmlns:svg="http://www.w3.org/2000/svg"
   xmlns="http://www.w3.org/2000/svg"
   xmlns:sodipodi="http://sodipodi.sourceforge.net/DTD/sodipodi-0.dtd"
   xmlns:inkscape="http://www.inkscape.org/namespaces/inkscape"
   width="22"
   height="22"
   id="svg2"
   version="1.1"
   inkscape:version="0.91 r"
   sodipodi:docname="yellow-folder-wine.svg"
   inkscape:export-filename="/media/Data/Main/Visuals/Icons/Numix/Desktop/repos/numix-wiki/Gjorgi/Numix-folders/48/New/folder-144.png"
   inkscape:export-xdpi="270"
   inkscape:export-ydpi="270">
  <defs
     id="defs4" />
  <sodipodi:namedview
     id="base"
     pagecolor="#ffffff"
     bordercolor="#666666"
     borderopacity="1.0"
     inkscape:pageopacity="0.0"
     inkscape:pageshadow="2"
     inkscape:zoom="31.96571"
     inkscape:cx="9.1851311"
     inkscape:cy="8.6795731"
     inkscape:document-units="px"
     inkscape:current-layer="layer1"
     showgrid="true"
     inkscape:window-width="1280"
     inkscape:window-height="998"
     inkscape:window-x="0"
     inkscape:window-y="0"
     inkscape:window-maximized="1"
     showguides="true"
     inkscape:guide-bbox="true">
    <inkscape:grid
       type="xygrid"
       id="grid2985"
       empspacing="5"
       visible="true"
       enabled="true"
       snapvisiblegridlinesonly="true" />
  </sodipodi:namedview>
  <metadata
     id="metadata7">
    <rdf:RDF>
      <cc:Work
         rdf:about="">
        <dc:format>image/svg+xml</dc:format>
        <dc:type
           rdf:resource="http://purl.org/dc/dcmitype/StillImage" />
        <dc:title />
      </cc:Work>
    </rdf:RDF>
  </metadata>
  <g
     inkscape:label="Layer 1"
     inkscape:groupmode="layer"
     id="layer1"
     transform="translate(0,-1030.3622)">
    <path
       style="font-size:medium;font-style:normal;font-variant:normal;font-weight:normal;font-stretch:normal;text-indent:0;text-align:start;text-decoration:none;line-height:normal;letter-spacing:normal;word-spacing:normal;text-transform:none;direction:ltr;block-progression:tb;writing-mode:lr-tb;text-anchor:start;baseline-shift:baseline;color:#000000;fill:#ffca28;fill-opacity:1;fill-rule:nonzero;stroke:none;stroke-width:1.52408636;marker:none;visibility:visible;display:inline;overflow:visible;enable-background:accumulate;font-family:Sans;-inkscape-font-specification:Sans"
       d="M 1.625 3 C 1.2775698 3.063 0.99985294 3.3968 1 3.75 L 1 18.25 C 1.00617 18.641 1.3590206 18.9938 1.75 19 L 20.25 19 C 20.640979 18.99 20.99383 18.641 21 18.25 L 21 5.8125 C 20.9938 5.4215 20.640979 5.0062 20.25 5 L 13 5 L 13 3.75 C 12.9938 3.359 12.640979 3.0062 12.25 3 L 1.625 3 z M 10.5 7 C 10.776142 7 11 7.2238 11 7.5 C 11 7.7762 10.776142 8 10.5 8 C 10.223858 8 10 7.7762 10 7.5 C 10 7.2238 10.223858 7 10.5 7 z M 14.875 7 C 14.963832 6.998 15.0389 7.01225 15.125 7.03125 C 15.12748 7.04125 15.15375 7.02125 15.15625 7.03125 C 15.70723 7.50005 16.150811 8.0626 16.46875 8.6875 C 16.47225 8.6935 16.46535 8.70875 16.46875 8.71875 C 16.547439 8.92565 16.63747 9.14255 16.71875 9.40625 C 16.764091 9.55345 16.81325 9.7133 16.875 9.875 C 16.942918 10.1951 17 10.5374 17 10.875 C 17 13.8141 14.321433 17 11 17 C 7.89086 17 5.314303 14.08385 5 11.40625 C 5.083679 11.37035 6.741403 9.5898 10.0625 10.9375 C 14.096304 12.5747 15.894667 10.943 16.0625 10.25 C 16.230332 9.5569 15.983828 8.25 15.3125 8.25 C 14.641171 8.25 13.825612 8.57335 13.9375 7.78125 C 14.00743 7.28625 14.430835 7.01 14.875 7 z M 13 9 C 13.552285 9 14 9.4477 14 10 C 14 10.5523 13.552285 11 13 11 C 12.447715 11 12 10.5523 12 10 C 12 9.4477 12.447715 9 13 9 z "
       transform="translate(0,1030.3622)"
       id="path3912" />
  </g>
</svg>

<!-- Created with Inkscape (http://www.inkscape.org/) -->
<svg xmlns="http://www.w3.org/2000/svg" viewBox="0 0 22 22">
 <g transform="translate(0,-1030.3622)">
  <path d="m 1.625 3 c -0.347 0.063 -0.625 0.397 -0.625 0.75 l 0 14.5 c 0.006 0.391 0.359 0.744 0.75 0.75 l 18.5 0 c 0.391 -0.01 0.744 -0.359 0.75 -0.75 l 0 -12.438 c -0.006 -0.391 -0.359 -0.806 -0.75 -0.813 l -7.25 0 l 0 -1.25 c -0.006 -0.391 -0.359 -0.744 -0.75 -0.75 l -10.625 0 z m 8.875 4 c 0.276 0 0.5 0.224 0.5 0.5 c 0 0.276 -0.224 0.5 -0.5 0.5 c -0.276 0 -0.5 -0.224 -0.5 -0.5 c 0 -0.276 0.224 -0.5 0.5 -0.5 z m 4.375 0 c 0.089 -0.002 0.164 0.012 0.25 0.031 c 0.002 0.01 0.029 -0.01 0.031 0 c 0.551 0.469 0.995 1.031 1.313 1.656 c 0.003 0.006 -0.003 0.021 0 0.031 c 0.079 0.207 0.169 0.424 0.25 0.688 c 0.045 0.147 0.095 0.307 0.156 0.469 c 0.068 0.32 0.125 0.662 0.125 1 c 0 2.939 -2.679 6.125 -6 6.125 c -3.109 0 -5.686 -2.916 -6 -5.594 c 0.084 -0.036 1.741 -1.816 5.063 -0.469 c 4.03 1.637 5.832 0.005 6 -0.688 c 0.168 -0.693 -0.079 -2 -0.75 -2 c -0.671 0 -1.487 0.323 -1.375 -0.469 c 0.07 -0.495 0.493 -0.771 0.938 -0.781 z m -1.875 2 c 0.552 0 1 0.448 1 1 c 0 0.552 -0.448 1 -1 1 c -0.552 0 -1 -0.448 -1 -1 c 0 -0.552 0.448 -1 1 -1 z" transform="translate(0,1030.3622)" style="visibility:visible;fill:#ffca28;fill-opacity:1;stroke:none;display:inline;color:#000;fill-rule:nonzero"/>
 </g>
</svg>
